X: 32034
T: Peggy On The Settle
R: reel
M: 4/4
K: Adorian
|:egfd e~A3|edBd e~A3|egfd e~A3|BGdc BGBd:|
edef g2 ag|edef gdBd|edef g2 ga|bgaf gdBd|
edef g2 ag|edef gdBd|gdBd g2 ga|bc'ba gfed|

